X:1
T:In Uthenera
T:In Uthenera
T:Leliana's Song
T:Inon Zur
T:Aislyrith / Transcribed by Julius Vin
T:J.V.
T:J.V.
T:J.V.
T:J.V.
C:Inon Zur
Z:J.V.
%%score 1 { ( 2 4 ) | 3 }
L:1/8
Q:1/4=95
M:2/4
K:D
V:1 treble nm="Фортепиано"
V:2 treble nm="Фортепиано"
V:4 treble 
V:3 bass 
V:1
 z4 | z4 | z4 | z4 | z4 | z4 |!ppp! G4- | G3 A | F3 G/F/ | E2 D2 | F4- | F3 G | E4 | z4 | G4- | %15
 G3 A | F3 G/F/ | E2 D2 | F4- | F3 G | E4- | E3 D | E4- | E4 | z4 | z4 | EB B2- | B2 A2 | G4- | %29
 G2 z E | FG A2- | A2 G2 | F4 | z2 D2 | EF G2- | G2 F2 | EF G2- | G2 z E | FG A2- | A2 G2 | F4 | %41
 E2 D2 | F4 | C4- | C4 | z4 | z4 | E2 BA/B/ | A4- | A2 F2 | F4 | E4 | z4 | z4 | z4 | E2 BA/B/ | %56
 A4- | A2 F2 | F4 | E4- | E4 | z4 | G4- | G3 A | F3 G/F/ | E2 D2 | F4- | F3 G | E4 | z4 | G4- | %71
 G3 A | F3 G/F/ | E2 D2 | F4- | F3 G | E4 | z4 | B4 | B2 B2 | B4 | B4 | A3 B | A2 AG | A4 | A4 | %86
 G3 A | G2 GF | G4 | G4 | F4 | E2 D2 | E4 | E4 | B4 | B2 B2 | B4 | B4 | A3 B | A2 AG | A4 | A4 | %102
 G3 G | G>A GF | G4 | G4 | F4 | E2 D2 | E4 | E4 | z4 | z4 | z4 | z4 | z4 |[Q:1/4=90] z4 | %116
 z4[Q:1/4=80] |[Q:1/4=70] z4[Q:1/4=60] | z4 |] %119
V:2
!ped! z!mf! g fd!ped-up! | eB dA |!ped! z g de!ped-up! | Bd AG |!ped! z g fd!ped-up! | eB Ad | %6
!f!!f!!ped! z g fd!ped-up! |!f! eB dA |!f! !arpeggio![FBd]2!ped! dc!ped-up! | %9
!f! d!ped!F Bd!ped-up! |!f! z!ped! f ed!ped-up! |!f! e!ped!A d!f!e!ped-up! | %12
!f! z!ped! e de-!ped-up! | e!ped!A ce!ped-up! | z!ped! g fd!ped-up! | e!ped!B dA!ped-up! | %16
 z!ped! b ag!ped-up! | d!ped!G Bd-!ped-up! | d!ped!d cd-!ped-up! | d!ped!F dB!ped-up! | %20
 z!ped! =c BA-!ped-up! | A!ped!E GA!ped-up! | z!ped! g fd!ped-up! | e!ped!B Ad!ped-up! | %24
 z!ped! g fd!ped-up! | e!ped!B Ad!ped-up! | z!ped! !arpeggio![eg] [Beg][df]!ped-up! | %27
 z!ped! !arpeggio![Bde] [Bd]B!ped-up! | !arpeggio![Bd]!ped!e [Bd]B!ped-up! | %29
 !arpeggio![Bd]!ped!e [Bd]B!ped-up! | [Adf]2!ped! [Bd]B!ped-up! | z!ped! [Bd] Bd!ped-up! | %32
 D!ped!F [Af][A-e]!ped-up! | [Ae]!ped![A-d] [Ad]A!ped-up! | [A=c]!ped!c ed!ped-up! | %35
 d!ped!=c cB!ped-up! | z/!ped! A/g/f/ g-<g!ped-up! | [Beg]2!ped! Bf!ped-up! | %38
 [Bdg]2!ped! dB!ped-up! | f3!ped! e!ped-up! | [Bdf]3!ped! d-!ped-up! | d!ped! c2 d-!ped-up! | %42
 d!ped!c Af!ped-up! | f!ped!e eA!ped-up! | f!ped!e eA!ped-up! | f!ped!e cA!ped-up! | %46
 [=cg]!ped!f dg!ped-up! | [=ce]2!ped! ce!ped-up! | [Adf]2!ped! fd!ped-up! | A!ped!d f2!ped-up! | %50
 z!ped! [Beg] [df][Ad]-!ped-up! | [Ad]!ped!c da!ped-up! | g!ped!e fd!ped-up! | e!ped!B AB!ped-up! | %54
 z/!ped! A/g/f/ g-<g!ped-up! | [=ce]2!ped! z f/g/!ped-up! | a/!ped!f/g/ a2 z/!ped-up! | %57
 [Ad]2!ped! z g/f/!ped-up! | e!ped!g fe!ped-up! | d2!ped! BA-!ped-up! | A!ped!e dB!ped-up! | %61
 d!ped!A BG!ped-up! | [Beg]!ped!A ed-!ped-up! | d3!ped! A!ped-up! | [Bf]2!ped! z B!ped-up! | %65
 c2!ped! d2!ped-up! | z!ped! [Bf] ed!ped-up! | e!ped! A3!ped-up! | z!ped! z [Ae]d!ped-up! | %69
 d!ped!e Ac-!ped-up! | c!ped![Beg] [df]d!ped-up! | e!ped! B2 A!ped-up! | g!ped!B ed-!ped-up! | %73
 d2!ped! e2!ped-up! | [Bdf]3!ped! d!ped-up! | c2!ped! B2!ped-up! | f2!ped! e2!ped-up! | %77
 c3!ped! A!ped-up! | [B^df]2!ped! dB-!ped-up! | B!ped!^d B2-!ped-up! | B!ped!d B2!ped-up! | %81
 c!ped!d B2!ped-up! | [Be]4!ped!!ped-up! | =f3!ped! d!ped-up! | [Ae]2!ped! d2!ped-up! | %85
 =c2!ped! d2!ped-up! | [=ce]4!ped!!ped-up! | d2!ped! =c2!ped-up! | B!ped!A GA!ped-up! | %89
 B!ped!d ba!ped-up! | a4!ped!!ped-up! | g2!ped! f2!ped-up! | [=ce]2!ped! d2!ped-up! | %93
 B!ped!d eg!ped-up! | f!ped!B ^df!ped-up! | b!ped!B ^df!ped-up! | [dg]3!ped! d!ped-up! | %97
 c2!ped! B2!ped-up! | z!ped! A =fe!ped-up! | d!ped!e =fg!ped-up! | g!ped!a e=c!ped-up! | %101
 B!ped!=c Ad!ped-up! | [=ce]!ped!d cd!ped-up! | e!ped!d ef!ped-up! | [eg]3!ped! f-!ped-up! | %105
 f!ped!g ab!ped-up! | [Adf]!ped!e de!ped-up! | f2!ped! d2!ped-up! | [=ce]!ped!d cB!ped-up! | %109
 =c!ped!d ef!ped-up! | e!ped!g fd!ped-up! | e!ped!B dA!ped-up! | z!ped! g fd!ped-up! | %113
 e!ped!B dA!ped-up! | z!ped! g fd!ped-up! | e!ped!B dA!ped-up! | z!ped! g fd!ped-up! | %117
 e!ped!B dA!ped-up! |!mf! !fermata!B4!ped!!ped-up! |] %119
V:3
!f! E4- | E4 | E4- | E4 | E4- | E4 | !arpeggio![E,B,E]4- | [E,B,E]4 | !arpeggio![B,,B,]F, DC | %9
 B,2 F,2 | !arpeggio![D,D]D EF | GF DE | !arpeggio![A,,E,A,]4 | EB, CA, | !arpeggio![E,,E,B,]3 B, | %15
 G,F, D,E, | !arpeggio![G,,D,G,]2 DE | B,D A,G, | !arpeggio![B,,F,B,]F, DC | B,F, B,D | %20
 !arpeggio![A,,E,A,]2 E=C | DA, B,=C | !arpeggio![E,,E,B,E]3 B, | G,B, [E,E]A, | %24
 !arpeggio![E,,E,B,E]3 B, | G,B, [E,E]A, | !arpeggio![E,,E,B,E]2 G,B, | G,B, A,G, | %28
 !arpeggio![E,,E,B,E]G, F,G, | B,A, B,G, | !arpeggio![B,,F,B,]C DB, | B,,F, B,F, | D,,A,, D,A,, | %33
 F,A,, D,A,, | A,,E, A,E, | =CE, A,E, | E,,B,, E,B,, | G,B,, E,B,, | G,,D, G,D, | B,D, G,D, | %40
 B,,F, B,F, | DF, B,F, | F,,C, F,C, | A,C, F,C, | F,,C, F,C, | A,C, F,C, | =C,G, =CG, | EG, =CG, | %48
 D,A, DA, | FA, DA, | E,B, EB, | GB, EB, | E,B, EB, | GB, EB, | =C,G, =CG, | EG, =CG, | D,A, DA, | %57
 FA, DA, | E,B, EB, | GB, EB, | E,B, EB, | GB, EB, | E,,B,, E,G, | B,E B,G, | B,,F, B,D | FD B,F, | %66
 D,,A,, D,E, | F,D, A,,F,, | A,,E, A,D | EC A,E, | E,,B,, E,F, | G,E, B,,G,, | G,,D, G,A, | %73
 B,A, G,D, | B,,F, B,D | FD B,F, | F,,C, F,^G, | A,C A,F, | B,,F, B,C | ^DF DB, | G,,D, G,A, | %81
 B,D B,G, | D,A, DE | =FD A,=F, | A,,E, A,B, | =CB, A,E, | =C,G, =CD | EF GA | G,,D, G,A, | %89
 B,D B,G, | D,,A,, D,E, | F,G, A,F, | A,,E, A,B, | =CD EG | B,,F, B,C | ^DF DB, | G,,D, G,A, | %97
 B,D B,G, | D,A, DE | =FG AF | A,,E, A,=C | DE =CD | =C,G, =CD | EF GA | E,B, EF | EG AB | %106
 D,A, DE | FG AF | =C,G, =CD | EF GA | E,B, EB, | GB, EB, | E,B, EB, | GB, EB, | E,B, EB, | %115
 GB, EB, | E,B, EB, | GB, EB, | !fermata!E,,4 |] %119
V:4
 x4 | x4 | x4 | x4 | x4 | x4 | G4- | G3 A | F3 G/F/ | E2 D2 | F4- | F3 G | E4 | x4 | G4- | G3 A | %16
 F3 G/F/ | E2 D2 | F4- | F3 G | E4- | E3 D | E4- | E4 | x4 | x4 | EB B2 | B2 A2 | G4- | G3 E | %30
 FG A2- | A2 G2 | F4 | z2 D2 | EF G2- | G2 F2 | EF G2- | G2 z E | FG A2- | A2 G2 | F4 | E2 D2 | %42
 F4 | C4- | C4 | x4 | x4 | E2 BA/B/ | A4- | A2 F2 | F4 | E4- | E4 | x4 | x4 | E2 BA/B/ | A4- | %57
 A2 F2 | F4 | E4- | E4 | x4 | G4- | G3 A | F3 G/F/ | E2 D2 | F4- | F3 G | E4 | x4 | G4- | G3 A | %72
 F3 G/F/ | E2 D2 | F4- | F3 G | E4 | x4 | B4 | B2 B2 | B4 | B4 | A3 B | A2 AG | A4 | A4 | G3 A | %87
 G>A GF | G4 | G4 | F4 | E2 D2 | E4 | E4 | B4 | B2 B2 | B4 | B4 | A3 B | A2 AG | A4 | A4 | G3 G | %103
 G>A GF | G4 | G4 | F4 | E2 D2 | E4 | E4 | x4 | x4 | x4 | x4 | x4 | x4 | x4 | x4 | x4 |] %119

